X: 1
T: Cahal's
M: 6/8
L: 1/8
R: jig
K: Dmaj
|:dcB FBc|dcB f2 e|def fed|(3efe d cde|
dcB FBc|dcB f2 ^g|aba efd|cde edc:|
|:DEF A3|AFB AFA|B2 A FAB|AFA BAF|
DEF A3|AFB AFA|dBA B2 A|FAB AFE:|
